X: 32237
T: Pi, The
R: waltz
M: 3/4
K: Gmajor
B3B d2|A3A B2|G3F ED|D4(3DDD|D2Ez zF|G2E2F2|G2A2B2|c2e2d2|
B3B d2|A3A B2|G3F ED|D4(3DDD|D2Ez zF|G2A2B2|c2e2d2|G6:|
|:g4 fe|d2B2B2|e3e dc|B2G2G2|F2A2c2|e2d2c2|B2d2g2|d2g2b2|
g3g fe|d2B2B2|e3e dc|B2G2G2|F2A2c2|e3d F2|G6|G6:|
|:b4g2|f3f a2|e3e g2|d6|Bd Ac Bd|gz Gz zA|B3d AB|G6:|

